src/assets/icons/googleSimpleLogo.svg

<svg xmlns="http://www.w3.org/2000/svg" width="20" height="20" viewBox="0 0 20 20" fill="none">
    <path fillRule="evenodd" clipRule="evenodd" d="M10.1635 1.78613C12.366 1.78613 14.2156 2.57185 15.6521 3.85899L15.7674 3.96435L13.4031 6.27292C12.7978 5.70506 11.7367 5.02542 10.1639 5.02542C7.94814 5.02542 6.06743 6.4872 5.38814 8.50721C5.22029 9.02863 5.11814 9.58685 5.11814 10.1643C5.11814 10.7411 5.22064 11.3001 5.39743 11.8211C6.06779 13.8411 7.94815 15.3026 10.1635 15.3026C11.3589 15.3026 12.2806 14.9861 12.9781 14.5254L13.0678 14.4647L13.1774 14.3854C14.1821 13.6326 14.6574 12.5697 14.7703 11.8251L14.781 11.7465H10.1631V8.63756H18.0292C18.1503 9.15899 18.206 9.66149 18.206 10.3501C18.206 12.9008 17.2939 15.0511 15.7114 16.5126C14.3242 17.7972 12.4253 18.5418 10.1631 18.5418C6.93779 18.5418 4.14529 16.7197 2.74457 14.0526L2.67886 13.9247L2.59957 13.7615C2.06429 12.6377 1.78624 11.4087 1.78564 10.164C1.78564 8.87828 2.081 7.66042 2.59993 6.56649L2.67922 6.40328L2.74493 6.27578C4.14564 3.60756 6.93779 1.78613 10.1635 1.78613Z" fill="#E9E34F"/>
  </svg>

<svg xmlns="http://www.w3.org/2000/svg" width="20" height="20" fill="none"><path d="M10.16 1.79c2.2 0 4.06.78 5.5 2.07l.1.1-2.36 2.31a4.64 4.64 0 0 0-3.24-1.24 5.06 5.06 0 0 0-5.04 5.13c0 .58.1 1.14.28 1.66a5.04 5.04 0 0 0 4.76 3.48 5 5 0 0 0 2.82-.77l.09-.07.1-.07c1.01-.76 1.49-1.82 1.6-2.56l.01-.08h-4.62V8.64h7.87c.12.52.18 1.02.18 1.71a8.2 8.2 0 0 1-2.5 6.16 7.99 7.99 0 0 1-5.55 2.03 8.37 8.37 0 0 1-7.42-4.49l-.06-.13-.08-.16a8.38 8.38 0 0 1 0-7.2l.08-.16.06-.12a8.37 8.37 0 0 1 7.42-4.5Z" fill="#E9E34F"/></svg>
